assets/images/logo_user.svg

<svg fill="none" height="17" viewBox="0 0 17 17" width="17" xmlns="http://www.w3.org/2000/svg"><path d="m11.6665 9.36213c.7882-.61671 1.3635-1.46242 1.6459-2.41945s.2578-1.9778-.0703-2.92029c-.3281-.9425-.9435-1.75985-1.7604-2.33834-.817-.5785-1.79493-.889372-2.79782-.889372s-1.98085.310872-2.79781.889372c-.81696.57849-1.4323 1.39584-1.76042 2.33834-.32812.94249-.35269 1.96326-.07031 2.92029.28239.95703.85769 1.80274 1.64588 2.41945-1.35057.53813-2.529 1.43067-3.40964 2.58247s-1.430491 2.5196-1.59093 3.9578c-.011613.105-.002318.2112.027355.3126.029673.1015.079142.1961.145584.2785.134181.1664.329361.273.542581.2964.21322.0233.42702-.0386.59438-.172.16735-.1335.27455-.3276.298-.5396.17654-1.563.9259-3.0065 2.10492-4.0547s2.70503-1.6276 4.28649-1.6276c1.58144 0 3.10744.5794 4.28644 1.6276 1.1791 1.0482 1.9284 2.4917 2.105 4.0547.0218.1964.1161.3779.2645.5093.1485.1314.3407.2034.5394.2023h.0884c.2108-.0242.4034-.1301.5359-.2949.1325-.1647.1942-.3749.1716-.5846-.1612-1.4422-.714-2.8136-1.5992-3.9672-.8851-1.1536-2.0693-2.04579-3.4255-2.58107zm-2.98262-.56767c-.63603 0-1.25777-.18757-1.78661-.53898-.52883-.35142-.94101-.85091-1.18441-1.43529-.24339-.58439-.30708-1.22743-.18299-1.84781.12408-.62038.43035-1.19024.88009-1.63751s1.02274-.75187 1.64655-.87527c.6238-.1234 1.27039-.06007 1.858.182.58759.24206 1.08989.65197 1.44319 1.17791.3534.52593.542 1.14426.542 1.7768 0 .8482-.3388 1.66166-.9419 2.26143s-1.42104.93672-2.27392.93672z" fill="#000"/><path d="m11.6665 9.36213c.7882-.61671 1.3635-1.46242 1.6459-2.41945s.2578-1.9778-.0703-2.92029c-.3281-.9425-.9435-1.75985-1.7604-2.33834-.817-.5785-1.79493-.889372-2.79782-.889372s-1.98085.310872-2.79781.889372c-.81696.57849-1.4323 1.39584-1.76042 2.33834-.32812.94249-.35269 1.96326-.07031 2.92029.28239.95703.85769 1.80274 1.64588 2.41945-1.35057.53813-2.529 1.43067-3.40964 2.58247s-1.430491 2.5196-1.59093 3.9578c-.011613.105-.002318.2112.027355.3126.029673.1015.079142.1961.145584.2785.134181.1664.329361.273.542581.2964.21322.0233.42702-.0386.59438-.172.16735-.1335.27455-.3276.298-.5396.17654-1.563.9259-3.0065 2.10492-4.0547s2.70503-1.6276 4.28649-1.6276c1.58144 0 3.10744.5794 4.28644 1.6276 1.1791 1.0482 1.9284 2.4917 2.105 4.0547.0218.1964.1161.3779.2645.5093.1485.1314.3407.2034.5394.2023h.0884c.2108-.0242.4034-.1301.5359-.2949.1325-.1647.1942-.3749.1716-.5846-.1612-1.4422-.714-2.8136-1.5992-3.9672-.8851-1.1536-2.0693-2.04579-3.4255-2.58107zm-2.98262-.56767c-.63603 0-1.25777-.18757-1.78661-.53898-.52883-.35142-.94101-.85091-1.18441-1.43529-.24339-.58439-.30708-1.22743-.18299-1.84781.12408-.62038.43035-1.19024.88009-1.63751s1.02274-.75187 1.64655-.87527c.6238-.1234 1.27039-.06007 1.858.182.58759.24206 1.08989.65197 1.44319 1.17791.3534.52593.542 1.14426.542 1.7768 0 .8482-.3388 1.66166-.9419 2.26143s-1.42104.93672-2.27392.93672z" stroke="#000"/></svg>

<svg width="17" height="17" viewBox="0 0 17 17" fill="none" xmlns="http://www.w3.org/2000/svg">
<path d="M11.6665 9.36213C12.4547 8.74542 13.03 7.89971 13.3124 6.94268C13.5948 5.98565 13.5702 4.96488 13.2421 4.02239C12.914 3.07989 12.2986 2.26254 11.4817 1.68405C10.6647 1.10555 9.68677 0.794678 8.68388 0.794678C7.68099 0.794678 6.70303 1.10555 5.88607 1.68405C5.06911 2.26254 4.45377 3.07989 4.12565 4.02239C3.79753 4.96488 3.77296 5.98565 4.05534 6.94268C4.33773 7.89971 4.91303 8.74542 5.70122 9.36213C4.35065 9.90026 3.17222 10.7928 2.29158 11.9446C1.41094 13.0964 0.861089 14.4642 0.70065 15.9024C0.689037 16.0074 0.698332 16.1136 0.728005 16.215C0.757678 16.3165 0.807147 16.4111 0.873589 16.4935C1.00777 16.6599 1.20295 16.7665 1.41617 16.7899C1.62939 16.8132 1.84319 16.7513 2.01055 16.6179C2.1779 16.4844 2.2851 16.2903 2.30855 16.0783C2.48509 14.5153 3.23445 13.0718 4.41347 12.0236C5.59249 10.9754 7.1185 10.396 8.69996 10.396C10.2814 10.396 11.8074 10.9754 12.9864 12.0236C14.1655 13.0718 14.9148 14.5153 15.0914 16.0783C15.1132 16.2747 15.2075 16.4562 15.3559 16.5876C15.5044 16.719 15.6966 16.791 15.8953 16.7899H15.9837C16.1945 16.7657 16.3871 16.6598 16.5196 16.495C16.6521 16.3303 16.7138 16.1201 16.6912 15.9104C16.53 14.4682 15.9772 13.0968 15.092 11.9432C14.2069 10.7896 13.0227 9.89741 11.6665 9.36213ZM8.68388 8.79446C8.04785 8.79446 7.42611 8.60689 6.89727 8.25548C6.36844 7.90406 5.95626 7.40457 5.71286 6.82019C5.46947 6.2358 5.40578 5.59276 5.52987 4.97238C5.65395 4.352 5.96022 3.78214 6.40996 3.33487C6.8597 2.8876 7.4327 2.583 8.05651 2.4596C8.68031 2.3362 9.3269 2.39953 9.91451 2.6416C10.5021 2.88366 11.0044 3.29357 11.3577 3.81951C11.7111 4.34544 11.8997 4.96377 11.8997 5.59631C11.8997 6.44451 11.5609 7.25797 10.9578 7.85774C10.3547 8.45751 9.53676 8.79446 8.68388 8.79446Z" fill="black"/>
<path d="M11.6665 9.36213C12.4547 8.74542 13.03 7.89971 13.3124 6.94268C13.5948 5.98565 13.5702 4.96488 13.2421 4.02239C12.914 3.07989 12.2986 2.26254 11.4817 1.68405C10.6647 1.10555 9.68677 0.794678 8.68388 0.794678C7.68099 0.794678 6.70303 1.10555 5.88607 1.68405C5.06911 2.26254 4.45377 3.07989 4.12565 4.02239C3.79753 4.96488 3.77296 5.98565 4.05534 6.94268C4.33773 7.89971 4.91303 8.74542 5.70122 9.36213C4.35065 9.90026 3.17222 10.7928 2.29158 11.9446C1.41094 13.0964 0.861089 14.4642 0.70065 15.9024C0.689037 16.0074 0.698332 16.1136 0.728005 16.215C0.757678 16.3165 0.807147 16.4111 0.873589 16.4935C1.00777 16.6599 1.20295 16.7665 1.41617 16.7899C1.62939 16.8132 1.84319 16.7513 2.01055 16.6179C2.1779 16.4844 2.2851 16.2903 2.30855 16.0783C2.48509 14.5153 3.23445 13.0718 4.41347 12.0236C5.59249 10.9754 7.1185 10.396 8.69996 10.396C10.2814 10.396 11.8074 10.9754 12.9864 12.0236C14.1655 13.0718 14.9148 14.5153 15.0914 16.0783C15.1132 16.2747 15.2075 16.4562 15.3559 16.5876C15.5044 16.719 15.6966 16.791 15.8953 16.7899H15.9837C16.1945 16.7657 16.3871 16.6598 16.5196 16.495C16.6521 16.3303 16.7138 16.1201 16.6912 15.9104C16.53 14.4682 15.9772 13.0968 15.092 11.9432C14.2069 10.7896 13.0227 9.89741 11.6665 9.36213ZM8.68388 8.79446C8.04785 8.79446 7.42611 8.60689 6.89727 8.25548C6.36844 7.90406 5.95626 7.40457 5.71286 6.82019C5.46947 6.2358 5.40578 5.59276 5.52987 4.97238C5.65395 4.352 5.96022 3.78214 6.40996 3.33487C6.8597 2.8876 7.4327 2.583 8.05651 2.4596C8.68031 2.3362 9.3269 2.39953 9.91451 2.6416C10.5021 2.88366 11.0044 3.29357 11.3577 3.81951C11.7111 4.34544 11.8997 4.96377 11.8997 5.59631C11.8997 6.44451 11.5609 7.25797 10.9578 7.85774C10.3547 8.45751 9.53676 8.79446 8.68388 8.79446Z" stroke="black"/>
</svg>
